X:401
T:Lady Pentweazle's Maggot
C:Walsh, 1756
M:4/4
L:1/8
S:Colin Hume's website,  colinhume.com  - chords can also be printed below the stave.
Q:1/2=90
K:Bb
P:A
|: FE | "Bb"DF B2- "/"BdcB | "F"cA f2- "/"fedc | "Bb"defd "F/A"cdec | "Gm"d2 B2- "F7"BGFE |\
"Bb"DF B2- "Bb7"BFG_A | "Eb"GE c2- "C7/E"cGAB | "F"A2 g2 "F7"fedc | "Bb"d2 B2- "/"B2 :|
P:B
fg | "Bb"f2 b2 "/"fdcB | "F"A2 B2 "/"cAGF | "C7"=EFGA "/"B2 gB | "F"A2 G2- "C7"G2 A2 |\
"Gm"Bdgf "C7"=e2 dc | "Bb"d=efd "F"c2 BA | "Gm"G2 d2 "C7"cBAG | "F"A2 F2- "F7"F2 FE |
"Bb"DF B2- "/"BdcB | "F"cA f2- "/"fedc | "Bb"dBfd "F7"cAec | "Gm"d2 B2- "Eb"BGFE |\
"Bb"DF B2- "Bb7"BFG_A | "Eb"GE c2- "C7/E"cGAB | "F"A2 g2 "F7"fedc | "Bb"d2 B2- "/"B2 |]

